Sources/FrostedUI/Resources/Icons.xcassets/hashtag12.imageset/hashtag-12.svg

<svg width="12" height="12" viewBox="0 0 12 12" fill="none" xmlns="http://www.w3.org/2000/svg" data-fui-icon="true">
  <path
    d="M8.61816 1.56384C8.72546 1.16388 9.13708 0.926383 9.53711 1.03357C9.93679 1.14106 10.1745 1.55265 10.0674 1.95251L9.68457 3.37927H10.7412C11.1554 3.37927 11.4912 3.71506 11.4912 4.12927C11.491 4.54333 11.1553 4.87927 10.7412 4.87927H9.2832L8.65918 7.20837H9.8291C10.2432 7.20837 10.5789 7.54435 10.5791 7.95837C10.5791 8.37259 10.2433 8.70837 9.8291 8.70837H8.25684L7.81934 10.3412C7.71216 10.7412 7.30037 10.9784 6.90039 10.8715C6.50056 10.7642 6.26311 10.3534 6.37012 9.95349L6.7041 8.70837H3.87988L3.44238 10.3412C3.33522 10.7411 2.9234 10.9784 2.52344 10.8715C2.1236 10.7642 1.88615 10.3534 1.99316 9.95349L2.32715 8.70837H1.25781C0.84377 8.70817 0.507812 8.37246 0.507812 7.95837C0.508038 7.54448 0.843909 7.20857 1.25781 7.20837H2.72852L3.35254 4.87927H2.16992C1.75598 4.87908 1.4201 4.54321 1.41992 4.12927C1.41992 3.71518 1.75587 3.37946 2.16992 3.37927H3.75488L4.24121 1.56384C4.34852 1.16389 4.76014 0.926384 5.16016 1.03357C5.55979 1.14109 5.79755 1.55268 5.69043 1.95251L5.30762 3.37927H8.13184L8.61816 1.56384ZM4.28223 7.20837H7.10547L7.72949 4.87927H4.90625L4.28223 7.20837Z"
    fill="currentColor"
  />
</svg>

<svg xmlns="http://www.w3.org/2000/svg" width="12" height="12" fill="none" data-fui-icon="true" viewBox="0 0 12 12"><path fill="currentColor" d="M8.618 1.564a.75.75 0 0 1 1.45.389l-.383 1.426h1.056a.75.75 0 0 1 0 1.5H9.283L8.66 7.21h1.17a.75.75 0 0 1 0 1.5H8.257l-.438 1.632a.75.75 0 0 1-1.449-.388l.334-1.245H3.88l-.438 1.633a.75.75 0 0 1-1.449-.388l.334-1.245h-1.07a.75.75 0 0 1 0-1.5H2.73l.624-2.329H2.17a.75.75 0 0 1 0-1.5h1.585l.486-1.815a.75.75 0 0 1 1.45.389l-.383 1.426h2.824zM4.282 7.208h2.823L7.73 4.88H4.906z"/></svg>
